icons/outline/abacus.svg

<!--
tags: [abacus, math, counting, adding up]
version: "1.58"
category: Math
unicode: "f05c"
-->
<svg
  xmlns="http://www.w3.org/2000/svg"
  width="24"
  height="24"
  viewBox="0 0 24 24"
  fill="none"
  stroke="currentColor"
  stroke-width="2"
  stroke-linecap="round"
  stroke-linejoin="round"
>
  <path d="M5 3v18m14 0v-18m-14 4h14m-14 8h14m-11 -2v4m3 -4v4m5 -4v4m-2 -12v4m-3 -4v4m-3 -4v4m-5 12h18" />
</svg>

<!--
tags: [abacus, math, counting, adding up]
version: "1.58"
category: Math
unicode: "f05c"
-->
<svg
  xmlns="http://www.w3.org/2000/svg"
  width="24"
  height="24"
  viewBox="0 0 24 24"
  fill="none"
  stroke="currentColor"
  stroke-width="2"
  stroke-linecap="round"
  stroke-linejoin="round"
>
    <path d="M5 3v18M19 21v-18M5 7h14M5 15h14M8 13v4M11 13v4M16 13v4M14 5v4M11 5v4M8 5v4M3 21h18" />
</svg>
